!!!COM: Mozart, Wolfgang Amadeus
!!!OTL: Musikalische Würfelspiele, Kontre-Tänze
!!!SCA: K<sup>6</sup> Anh. C30.01 (K<sup>3</sup> Anh. 294d)
**kern	**kern
*staff2	*staff2
*clefF4	*clefG2
*M2/4	*M2/4
*MM110	*MM110
*>[A,A1,A,A2,B]	*>[A,A1,A,A2,B]
*>norep[A,A2,B]	*>norep[A,A2,B]
*>A	*>A
=85	=85
4C	8gg
.	16gg
.	16ee
4r	8cc
.	16cc
.	16ee
=152	=152
4C	8gg
.	16ccc
.	16gg
4r	8ee
.	8cc
=40	=40
8G	16ff
.	16ee
8GG	16dd
.	16cc
8GG	16b
.	16cc
8GG	16dd
.	16b
=37	=37
16C	8cc
16c	.
16B	8ee
16c	.
4C	4g
=21	=21
4D	8d
.	16f#
.	16a
4C 4D	16dd
.	16ff#
.	16aa
.	16ff#
=92	=92
4G	8gg
.	8dd
4r	8b
.	8g
=73	=73
4C	8ee
.	8gg
4D	8ff#
.	8aa
=172	=172
*>A1	*>A1
4GG	4g 4b 4gg
16G	4r
16F	.
16E	.
16D	.
=172:|!	=172:|!
*>A2	*>A2
4GG	4g 4b 4gg
16GG	4r
16AA	.
16BB	.
16C#	.
=93||	=93||
*>B	*>B
16D	4dd
16F#	.
16A	.
16F#	.
16C	8aa
16F#	.
16A	8ff#
16C	.
=91	=91
16BB	4gg
16D	.
16G	.
16D	.
16BB	8bb
16GG	.
16AA	8r
16BB	.
=26	=26
4C	8ee
.	8cc
4C	8gg
.	8ee
=107	=107
16BB	8dd
16D	.
16G	4b
16D	.
16G	.
16F	.
16E	8g
16D	.
=151	=151
16C	4cc
16E	.
16G	.
16E	.
4C	8ee
.	8gg
=48	=48
4C	8cc
.	16cc
.	16ee
4r	8gg
.	16gg
.	16ee
=53	=53
16GG	8gg
16BB	.
16D	8ff
16BB	.
16F	8dd
16D	.
16BB	8b
16GG	.
=47	=47
4C	4cc
4CC	4c
==	==
*-	*-
